icons/pen-nib-fill.svg

<svg viewBox="0 0 24 24" fill="currentColor" xmlns="http://www.w3.org/2000/svg">
    <path d="M4.92898 21.4819L10.775 15.6359C11.4423 15.8141 12.1837 15.6414 12.7071 15.118C13.4882 14.3369 13.4882 13.0706 12.7071 12.2896C11.9261 11.5085 10.6598 11.5085 9.87872 12.2896C9.35526 12.813 9.18263 13.5544 9.36081 14.2217L3.51476 20.0677L2.4541 19.0071C5.28253 15.7072 6.34319 12.0539 7.7574 5.9256L14.1214 5.21849L19.7783 10.8754L19.0711 17.2393C12.9429 18.6535 9.28947 19.7142 5.98964 22.5426L4.92898 21.4819ZM16.5962 2.03651L22.9428 8.38312C23.1381 8.57838 23.1381 8.89496 22.9428 9.09022C22.8679 9.16513 22.7712 9.21431 22.6665 9.23067L21.1924 9.46113L15.5356 3.80428L15.7477 2.31935C15.7868 2.04599 16.04 1.85604 16.3134 1.89509C16.4205 1.91039 16.5197 1.96001 16.5962 2.03651Z"/>
</svg>

<svg xmlns="http://www.w3.org/2000/svg" viewBox="0 0 24 24">
    <g>
        <path fill="none" d="M0 0h24v24H0z"/>
        <path d="M4.929 21.485l5.846-5.846a2 2 0 1 0-1.414-1.414l-5.846 5.846-1.06-1.06c2.827-3.3 3.888-6.954 5.302-13.082l6.364-.707 5.657 5.657-.707 6.364c-6.128 1.414-9.782 2.475-13.081 5.303l-1.061-1.06zM16.596 2.04l6.347 6.346a.5.5 0 0 1-.277.848l-1.474.23-5.656-5.656.212-1.485a.5.5 0 0 1 .848-.283z"/>
    </g>
</svg>
